frontend/public/svg/hand gestures/ok.svg

<svg width="135" height="156" viewBox="0 0 135 156" fill="none" xmlns="http://www.w3.org/2000/svg">
<g clip-path="url(#clip0)">
<path d="M131.564 33.3581C129.409 31.8157 126.365 31.7271 123.213 33.1172C120.948 34.1591 118.812 35.4598 116.847 36.9935C111.67 40.9072 107.277 46.1547 103.019 53.5083C102.645 54.1541 102.258 54.7914 101.87 55.4287L101.858 55.4497C101.716 53.3524 101.694 51.2487 101.792 49.1488C101.812 48.4741 101.832 47.8034 101.843 47.1319L101.895 44.0984C101.987 38.9133 102.082 33.5478 101.941 28.2754C101.813 23.5307 100.917 19.6491 99.1983 16.4082C97.82 13.8104 95.851 12.142 93.5026 11.59C91.1542 11.038 88.6516 11.6464 86.2612 13.3536C85.4218 13.9858 84.6289 14.6781 83.8892 15.425C83.6503 15.6547 83.4055 15.8896 83.1509 16.1286C83.1134 15.8726 83.0793 15.6244 83.0452 15.3822C82.9435 14.5179 82.7905 13.6605 82.5857 12.8146C82.4624 12.3493 82.3462 11.8794 82.2287 11.4082C81.8612 9.67386 81.3151 7.98222 80.5997 6.36024C79.2017 3.47629 77.0686 1.63136 74.5935 1.16602C72.0489 0.685577 69.2916 1.67727 66.8323 3.95673C63.3256 7.20692 61.852 11.5413 60.9607 14.955C58.3492 24.9549 57.5327 35.079 56.8035 46.328C56.5508 50.2299 56.4498 54.0976 56.3441 58.1938C56.2995 59.8918 56.2541 61.6174 56.197 63.379L55.6123 63.06C55.0367 62.7456 54.5943 62.5034 54.1421 62.2809C50.0137 60.243 45.0386 58.1985 39.4808 58.507L38.8041 58.543C36.2069 58.6123 33.6197 58.8923 31.0679 59.3805C21.0771 61.5878 14.0647 67.5645 10.2258 77.1444C9.05228 80.073 9.08831 82.8158 10.3308 85.0769C11.5995 87.3853 14.0798 88.99 17.3143 89.5945C20.4065 90.1977 23.6123 89.6129 26.293 87.9582C26.9493 87.5644 27.6011 87.1588 28.2522 86.7545C29.0306 86.2701 29.8084 85.7864 30.5973 85.3211C34.6476 82.9333 39.0095 82.6406 43.5606 84.4514C45.1243 85.0848 46.5343 86.0463 47.6959 87.2697C48.8575 88.4938 49.7437 89.9515 50.2952 91.5464C50.8537 93.0829 51.0768 94.7218 50.9497 96.3515C50.8225 97.9818 50.3481 99.5662 49.5582 100.998C48.5218 102.815 47.222 104.468 45.7009 105.904C43.7387 107.843 41.1441 109.012 38.3916 109.195C35.6391 109.378 32.9123 108.565 30.7101 106.904C28.8661 105.437 27.1417 103.826 25.5533 102.085C24.8083 101.311 24.0371 100.51 23.2561 99.7493C22.6135 99.1252 21.9788 98.4583 21.3645 97.8131C20.0133 96.299 18.5186 94.92 16.9014 93.6946C13.6118 91.3705 9.72509 90.8862 6.50441 92.3997C3.28376 93.9132 1.188 97.1909 0.880831 101.182C0.705751 103.782 0.860089 106.393 1.34024 108.954C2.3464 114.606 4.89955 119.738 7.65093 124.935C13.5206 136.021 21.5123 143.861 31.4039 148.24C40.869 152.429 50.3248 154.527 59.6809 154.527C66.0926 154.519 72.4657 153.54 78.5834 151.62C89.9072 148.097 97.8942 140.635 102.321 129.439C105.377 121.711 107.309 113.124 108.228 103.185C108.871 96.2346 109.532 89.9988 110.248 84.1226C110.374 82.5047 110.869 80.9374 111.692 79.54C114.219 75.7451 116.856 71.9265 119.407 68.2399C121.749 64.8518 124.171 61.3482 126.503 57.8696C128.761 54.5102 130.827 51.0261 132.692 47.4339C133.68 45.4991 134.291 43.3932 134.49 41.2295C134.795 37.7693 133.727 34.9057 131.564 33.3581ZM56.2292 105.378C59.3993 100.542 59.7497 94.4888 57.1907 88.7695C54.3343 82.3872 48.4673 77.6596 42.2433 76.7244C36.205 75.818 30.9543 76.8261 26.1958 79.8091C25.8296 80.0389 25.4699 80.2843 25.1096 80.5311C24.3033 81.1284 23.4318 81.6318 22.5118 82.0322C21.2373 82.5644 19.8598 82.804 18.4805 82.7344C17.3647 82.617 16.6015 82.2671 16.2208 81.6941C15.8112 81.0778 15.7935 80.1367 16.1676 78.8975C17.7612 73.6251 21.3264 69.7304 26.7655 67.323C33.9596 64.1377 40.6798 64.1068 47.3042 67.2212L47.6521 67.3847C51.0086 68.9599 54.1794 70.4478 56.1156 73.7971C57.1139 75.5246 58.7514 76.24 60.4986 75.7097C62.6645 75.0533 62.7689 73.0567 62.8443 71.601C63.0084 68.4348 63.1536 65.2665 63.2993 62.0984C63.6307 54.8557 63.9746 47.367 64.5462 40.0225C65.1192 32.7031 66.0507 24.0735 68.6156 15.5627C69.2562 13.568 70.1363 11.6584 71.237 9.87562C71.6748 9.25768 72.2235 8.72637 72.8549 8.30888C73.08 8.13692 73.3038 7.96633 73.5152 7.79044C75.1928 8.98038 75.4461 10.5602 75.5813 12.3441C75.6627 13.4133 75.7513 14.4831 75.8399 15.5536C76.3026 20.0497 76.4956 24.5694 76.4181 29.0886C76.0729 38.1868 75.475 47.4299 74.8967 56.3692C74.6808 59.7078 74.4688 63.0464 74.2608 66.3849C74.2273 66.937 74.1387 67.5008 74.0527 68.0502C73.9838 68.4919 73.9149 68.933 73.8702 69.3767C73.5821 72.2613 74.5686 74.2539 76.5074 74.7074C76.9019 74.7967 77.3108 74.8019 77.7072 74.7232C78.1036 74.6438 78.479 74.4817 78.8085 74.248C79.4084 73.7833 79.9079 73.2018 80.2781 72.5395C80.6476 71.8766 80.8799 71.1461 80.9607 70.392C81.4313 67.4431 81.7666 64.2578 81.9845 60.6539C82.3816 54.0787 82.7328 47.3906 83.0727 40.923C83.2152 38.2001 83.3589 35.4771 83.5053 32.7542C83.7442 28.316 85.5255 24.2218 88.9529 20.2326C89.9879 19.0275 90.9219 18.4795 91.6675 18.6501C92.3777 18.8129 92.9546 19.6557 93.3346 21.0878C94.1662 23.9653 94.6197 26.9387 94.684 29.9333C94.6965 36.8728 94.4215 43.9323 94.1544 50.7595L94.1012 52.1313C93.9575 55.8429 93.7435 59.6136 93.5374 63.2648C93.4114 65.4917 93.2854 67.7187 93.1738 69.947C93.1292 70.8633 93.1639 71.7821 93.2768 72.6925C93.3077 73.3882 93.5709 74.0544 94.0244 74.5827C94.4779 75.1117 95.0955 75.4734 95.7788 75.6099C97.3192 75.9302 98.5157 75.3165 99.4359 73.7354C102.603 68.293 105.928 62.6353 109.319 56.9192C113.145 50.4701 117.07 45.9125 121.67 42.5763C122.779 41.8042 123.929 41.0932 125.116 40.4465C125.598 40.1722 126.081 39.8978 126.56 39.6149L127.122 39.9989C126.977 40.438 126.845 40.8842 126.714 41.3305C126.43 42.4577 126.016 43.548 125.481 44.5795C123.334 48.3016 120.997 51.8399 119.2 54.5073L118.66 55.3073C115.262 60.3526 111.748 65.5698 108.116 70.5699C103.342 77.1418 101.684 84.4842 100.655 93.4826C99.5764 102.954 98.3536 113.688 94.8606 123.732C91.0538 134.671 83.4252 141.294 72.1808 143.416C60.7013 145.653 48.8256 144.647 37.8859 140.511C28.4346 136.956 20.9714 130.28 15.7089 120.667C12.8866 115.511 10.2777 110.399 9.38373 104.581C9.17705 103.287 9.15651 101.97 9.32269 100.671C9.33181 100.439 9.39797 100.213 9.51546 100.013C9.63294 99.8123 9.79795 99.6443 9.99603 99.5229C10.1293 99.4599 10.2753 99.4277 10.4227 99.4297C10.7321 99.4422 11.0326 99.536 11.2943 99.7014C12.3126 100.33 13.2402 101.094 14.051 101.974L14.4854 102.426C16.2576 104.264 18.0868 106.163 19.7079 108.168C22.754 111.938 26.8817 114.666 32.328 116.512C38.344 118.546 44.2615 117.446 49.4432 113.322C52.4092 110.956 54.7367 107.655 56.2292 105.378Z" fill="black"/>
</g>
<defs>
<clipPath id="clip0">
<rect width="133.893" height="154.239" fill="white" transform="translate(0.736206 0.884033)"/>
</clipPath>
</defs>
</svg>

<svg xmlns="http://www.w3.org/2000/svg" width="135" height="156" fill="none" viewBox="0 0 135 156"><g clip-path="url(#a)"><path fill="#000" d="M131.564 33.358c-2.155-1.542-5.199-1.63-8.351-.24a32.3 32.3 0 0 0-6.366 3.875c-5.177 3.914-9.57 9.162-13.828 16.515-.374.646-.761 1.283-1.149 1.92l-.012.022a55 55 0 0 1-.066-6.301c.02-.675.04-1.346.051-2.017l.052-3.034c.092-5.185.187-10.55.046-15.823-.128-4.744-1.024-8.626-2.743-11.867-1.378-2.598-3.347-4.266-5.695-4.818s-4.851.056-7.242 1.764a22 22 0 0 0-2.372 2.071q-.357.345-.738.704-.056-.384-.106-.747a22 22 0 0 0-.46-2.567q-.183-.7-.356-1.407a25.7 25.7 0 0 0-1.63-5.048c-1.397-2.884-3.53-4.729-6.005-5.194-2.545-.48-5.302.511-7.762 2.79-3.506 3.25-4.98 7.585-5.871 10.999-2.612 10-3.428 20.124-4.157 31.373-.253 3.902-.354 7.77-.46 11.866a802 802 0 0 1-.147 5.185l-.585-.319c-.575-.314-1.018-.557-1.47-.78-4.128-2.037-9.103-4.081-14.661-3.773l-.677.036a48 48 0 0 0-7.736.837c-9.99 2.208-17.003 8.184-20.842 17.764-1.174 2.929-1.138 5.672.105 7.933 1.269 2.308 3.749 3.913 6.983 4.517 3.093.604 6.298.019 8.979-1.636.656-.394 1.308-.8 1.96-1.204.778-.484 1.555-.968 2.344-1.433 4.05-2.388 8.413-2.68 12.964-.87a11.83 11.83 0 0 1 6.734 7.095 11.46 11.46 0 0 1-.737 9.452 21.2 21.2 0 0 1-3.857 4.906 11.484 11.484 0 0 1-14.99 1 44.4 44.4 0 0 1-5.158-4.819 102 102 0 0 0-2.297-2.336c-.643-.624-1.277-1.29-1.892-1.936a31.4 31.4 0 0 0-4.463-4.118c-3.29-2.324-7.176-2.809-10.397-1.295-3.22 1.513-5.316 4.79-5.623 8.782-.175 2.6-.02 5.211.46 7.772 1.005 5.652 3.559 10.784 6.31 15.981 5.87 11.086 13.861 18.926 23.753 23.305 9.465 4.189 18.92 6.287 28.277 6.287a63.4 63.4 0 0 0 18.902-2.907c11.324-3.523 19.311-10.985 23.738-22.181 3.056-7.728 4.988-16.315 5.907-26.254a658 658 0 0 1 2.02-19.062 10.7 10.7 0 0 1 1.444-4.583c2.527-3.795 5.164-7.614 7.715-11.3 2.342-3.388 4.764-6.892 7.096-10.37a108 108 0 0 0 6.189-10.436 17.1 17.1 0 0 0 1.798-6.204c.305-3.46-.763-6.324-2.926-7.872m-75.335 72.02c3.17-4.836 3.52-10.89.962-16.609-2.857-6.382-8.724-11.11-14.948-12.045-6.038-.906-11.289.102-16.047 3.085-.366.23-.726.475-1.086.722a13.2 13.2 0 0 1-2.598 1.501 9.25 9.25 0 0 1-4.032.702c-1.115-.117-1.878-.467-2.26-1.04-.409-.616-.426-1.557-.052-2.797 1.593-5.272 5.158-9.167 10.598-11.574 7.194-3.185 13.914-3.216 20.538-.102l.348.164c3.357 1.575 6.527 3.063 8.464 6.412.998 1.728 2.635 2.443 4.383 1.913 2.165-.657 2.27-2.653 2.345-4.109.164-3.166.31-6.335.455-9.503.332-7.242.676-14.731 1.247-22.075.573-7.32 1.505-15.95 4.07-24.46a26 26 0 0 1 2.621-5.687 6.1 6.1 0 0 1 1.618-1.567c.225-.172.449-.343.66-.519 1.678 1.19 1.931 2.77 2.066 4.554q.124 1.605.259 3.21c.463 4.496.656 9.015.578 13.535-.345 9.098-.943 18.34-1.521 27.28q-.324 5.008-.636 10.016c-.034.552-.122 1.116-.208 1.665-.07.442-.138.883-.183 1.327-.288 2.884.699 4.877 2.637 5.33a2.9 2.9 0 0 0 2.301-.459 5.64 5.64 0 0 0 2.153-3.856c.47-2.949.806-6.134 1.023-9.738.398-6.575.749-13.263 1.089-19.731q.213-4.084.432-8.169c.24-4.438 2.02-8.532 5.448-12.521 1.035-1.206 1.969-1.753 2.715-1.583.71.163 1.287 1.006 1.667 2.438a34.5 34.5 0 0 1 1.349 8.845c.013 6.94-.263 14-.53 20.827l-.053 1.371c-.144 3.712-.358 7.483-.564 11.134a1033 1033 0 0 0-.363 6.682c-.045.916-.01 1.835.103 2.745a3.115 3.115 0 0 0 2.502 2.918c1.54.32 2.737-.293 3.657-1.875a2333 2333 0 0 1 9.883-16.816c3.826-6.449 7.751-11.006 12.351-14.343a37 37 0 0 1 3.446-2.13c.482-.274.965-.548 1.444-.831l.562.384c-.145.439-.277.885-.408 1.331a15 15 0 0 1-1.233 3.25c-2.147 3.722-4.484 7.26-6.281 9.927l-.54.8c-3.398 5.046-6.912 10.263-10.544 15.263-4.774 6.572-6.432 13.914-7.461 22.913-1.079 9.471-2.301 20.205-5.794 30.249-3.807 10.939-11.436 17.562-22.68 19.684a62.94 62.94 0 0 1-34.295-2.905c-9.451-3.555-16.915-10.231-22.177-19.844-2.822-5.156-5.431-10.268-6.325-16.086a13.7 13.7 0 0 1-.061-3.91 1.41 1.41 0 0 1 .673-1.148 1 1 0 0 1 .427-.093c.31.012.61.106.871.271a13 13 0 0 1 2.757 2.273l.434.452c1.773 1.838 3.602 3.737 5.223 5.742 3.046 3.77 7.174 6.498 12.62 8.344 6.016 2.034 11.933.934 17.115-3.19 2.966-2.366 5.294-5.667 6.786-7.944"/></g><defs><clipPath id="a"><path fill="#fff" d="M.736.884H134.63v154.239H.736z"/></clipPath></defs></svg>
